resources/haticons/SVG/spdx.svg

<!-- Generated by IcoMoon.io -->
<svg version="1.1" xmlns="http://www.w3.org/2000/svg" width="24" height="24" viewBox="0 0 24 24">
<title>spdx</title>
<path fill="#4398cc" d="M0 0v24h8.222l4.179-4.747v-6.053h6.577l5.022-4.977v-8.223h-12zM5.2 5.2h13.791l-6.791 6.8c-3.735 3.74-6.838 6.8-6.896 6.8s-0.104-3.060-0.104-6.8zM13.6 14v10h10.4v-10h-5.2z"></path>
</svg>

<svg xmlns="http://www.w3.org/2000/svg" width="24" height="24"><path fill="#4398cc" d="M0 0v24h8.222l4.179-4.747V13.2h6.577L24 8.223V0H12zm5.2 5.2h13.791L12.2 12c-3.735 3.74-6.838 6.8-6.896 6.8S5.2 15.74 5.2 12zm8.4 8.8v10H24V14h-5.2z"/></svg>
